X:14
T:Cupido
T:Canzon di Pifari
C:Cornazano, c. 1465
M:6/4
L:1/8
K:Gmaj clef=G-8
B12 | B12 | d12 | e12 | A12 | B12 | A12 | A12 | e12  | d12 | c12 | d12 | e12 | e12 | A12 | d12 |
c12 | c12 | B12 | B12 | G12 | B12 | d12 | e12 | A12 | B12 | A12 | A12 | B12 | c12 | A12 | G12 |
e12 | d12 | c12 | c12 | d12 | e12 | c12 | d12 | A12 | B12 | A12 | B12 | A12 |]

